!!!COM: goo-goo-dolls
!!!OTL: iris
!!!RNB: hooktheoryid: EzngRNpEgJj
**kern	**text
*clefG2	*
*k[f#c#]	*
*M6/4	*
=1	=1
8a	D
8a	.
4r	.
8a	.
[8aL	.
8a]J	Em
4g	.
4f#	.
[8d	.
=2	=2
8d]	G
4e	.
2r	.
8r	.
8d	.
8d	.
8r	.
[8a	.
=3	=3
8a]	Bm
4g	.
4f#	.
[8gL	.
8g]J	A
8f#	.
8e	.
4d	.
[8d	.
=4	=4
4d]	G
2r	.
8r	.
4d	.
8d	.
[4a	.
=5	=5
8a]	D
8a	.
4r	.
8a	.
8a	.
2g	Em
8f#	.
[8a	.
=6	=6
4a]	G
4g	.
8f#	.
4.f#	.
8.e	.
8.d	.
[8e	.
=7	=7
4e]	Bm
4f#	.
8d	.
[8eL	.
4e]J	A
4f#	.
4d	.
=8	=8
4.d	G
1r	.
8r	.
*-	*-